X:1
T:Title
%%score { ( 1 4 5 ) | ( 2 3 ) }
L:1/8
M:4/4
K:G
V:1 treble nm="Grand Piano"
V:4 treble 
V:5 treble 
V:2 bass 
V:3 bass 
V:1
 z4 z2[Q:1/4=108] [G,B,D]2 | [G,B,G]3 D EFGA | B6 [DB]2 | [^CA]2 [B,CG]2 [A,CF]2[K:bass] [G,CE]2 | %4
[M:3/4] [F,D]6 |[M:1/4] [F,CD]2 |[M:4/4][K:treble] [G,B,G]3 D EFGA | B6 B2 | %8
 [G^c]3 [Gc] [GB]2 [Gc]2 | [Fd]6 z2 | [DB]2 [CA][B,G] [B,D]2 [B,D]2 | E2 G2 D4 | %12
 [DB]2 [CA][B,G] [CF]2 [B,G]2 | [Fd]4 [Fc]4 | [Ec]2 [DB][CA] [CE]2 [CE]2 | E2 FG [B,D]4 | %16
 B2 BB [G^c]2 [Gc]2 |[M:7/8] [Ge]- [Ge]3 [Fd]3 |[M:1/4] [D,D]2 | %19
[M:4/4] [B,G]2 [Bdg]>[Bdg] [Bdg]2 [B,G]2 | [EB]2 [Bdg]>[Bdg] [Bdg]2 B2 | d4 z4 | %22
 d2- [DGd-]2 [CDFd]4 | [Bd]2 [GB]>[Ac] [Bd]2 e2 | d4 c4 | [Ac]2 [FA]>[GB] [Ac]2 [Bd]2 | %26
 [Ac]4 [GB]4 | [Ge]2 [Ge]>[Ge] [Gd]4 | [Ac]2 [Ac]>[Ac] [GB]4 | %29
 [EA]2 [EB]>[Ec] dcBA[Q:1/4=105][Q:1/4=101][Q:1/4=98][Q:1/4=95][Q:1/4=91][Q:1/4=88][Q:1/4=84] | %30
 G2 F2 G4 |] %31
V:2
 z4 z2 G,,2 | G,,3 D, E,F,G,A, | B,6 [G,,G,]2 | [A,,E,]2 A,,2 A,,2 A,,2 |[M:3/4] D,6 |[M:1/4] D,2 | %6
[M:4/4] G,,3 D, E,F,G,A, | B,6 [G,DG]2 | [E,A,]3 [E,A,] [A,,A,]2 [A,,A,]2 | [D,A,]6 z2 | %10
 [G,,G,]2 [G,,G,][G,,G,] [G,,G,]2 [G,,G,]2 | [G,C]4 z4 | [G,,G,]2 [G,,G,][G,,G,] [D,A,]2 [E,G,]2 | %13
 [D,A,]4 [D,A,]4 | [A,,A,]2 [A,,A,][A,,A,] [A,,A,]2 [A,,A,]2 | [D,A,C]2 [D,A,C][D,A,C] [G,,G,]4 | %16
 [E,G,E]2 [E,G,E][E,G,E] [E,A,]2 [E,A,]2 |[M:7/8] [C,A,]- [C,A,]3 [D,A,]3 |[M:1/4] z2 | %19
[M:4/4] [G,,G,]2 [G,,G,]>[G,,G,] [G,,G,]2 [G,,G,]2 | [E,G,]2 [E,G,]>[E,G,] [E,G,]2 B,2 | %21
 .[D,F,A,CD]2 [D,F,A,C]2 [D,F,A,C]2 [D,F,A,C]2 | [D,F,A,C]2 [D,G,B,]2 [D,F,A,]4 | %23
 [G,D]2 [G,D]>[G,D] [G,D]2 [G,CG]2 | [G,B,G]4 [A,DF]4 | [D,D]2 [D,D]>[D,D] [D,D]2 [D,D]2 | %26
 [F,D]4 [G,D]4 | [C,C]2 [C,C]>[C,C] [G,B,]4 | [D,D]2 [E,D]>[E,D] [G,D]4 | %29
 [C,A,]2 [B,,^G,]>[B,,G,] [A,,A,]2 [C,A,]2 | B,2 z2 z4 |] %31
V:3
 x8 | x8 | x8 | x8 |[M:3/4] x6 |[M:1/4] x2 |[M:4/4] x8 | x8 | x8 | x8 | x8 | C,2 E,2 [G,B,]4 | x8 | %13
 x8 | x8 | x8 | x8 |[M:7/8] x7 |[M:1/4] x2 |[M:4/4] x8 | x8 | x8 | x8 | x8 | x8 | x8 | x8 | x8 | %28
 x8 | x8 | [D,D]2- [D,A,D]2 [G,B,D]4 |] %31
V:4
 x8 | x8 | x8 | x6[K:bass] x2 |[M:3/4] x6 |[M:1/4] x2 |[M:4/4][K:treble] x8 | x8 | x8 | x8 | x8 | %11
 x8 | x8 | x8 | x8 | x8 | x8 |[M:7/8] x7 |[M:1/4] x2 |[M:4/4] x8 | x8 | %21
 (3z EF z2 (3[D-cd-][D-Bd-][D-Ad-] [Dd]2 | [DF]2 z2 z4 | x8 | x8 | x8 | x8 | x8 | x8 | z4 E2 E2 | %30
 x8 |] %31
V:5
 x8 | x8 | x8 | x6[K:bass] x2 |[M:3/4] x6 |[M:1/4] x2 |[M:4/4][K:treble] x8 | x8 | x8 | x8 | x8 | %11
 x8 | x8 | x8 | x8 | x8 | x8 |[M:7/8] x7 |[M:1/4] x2 |[M:4/4] x8 | x8 | z2 (3GAB z2 (3GFE | x8 | %23
 x8 | x8 | x8 | x8 | x8 | x8 | x8 | x8 |] %31

